X: 31669
T: Parry Sound, The
R: polka
M: 2/4
K: Gmajor
|:B/c/|db ag|d>c BA|GB df|a2 e2|ec’ c’e|f2- fe|
[1 d/e/d/c/ B_B|B2- B:|2 d/e/d/c/ AF|G2- G||
|:B/c/|dG BB/c/|dG BA/G/|F/G/A/B/ c/B/A/c/|e/d/^c/e/ dB/c/|
dG BB/c/|dG BG|F/G/A/B/ c/A/F/A/|G/G/F G:|

